X: 5
T: Denis Murphy's
R: polka
M: 2/4
L: 1/8
K: Dmaj
|: f/g/f/e/ d/c/d/B/ | AD F>A | G/F/E ed | cB c/B/A |
ff/e/ d>B | AD F2 | GE ef | ed d2 :|
|: Af f/^e/f | Ag g2 | Af- f/^e/f/d/ | e/f/e/d/ Bd/B/ |
Af- f/^e/f | Ag g>a | ba f/g/a/f/ | ed d2 :|


Tune 357	Setting 13158

